!!!OTL: "Verzweiflung" SCHAETZLEIN SAG MIRS FUER GEWISS
!!!ARE: Europa, Mitteleuropa, Deutschland, Niederrhein
!!!SCT: Z1172
!!!YEM: Copyright 1995, estate of Helmut Schaffrath.
**kern
*ICvox
*Ivox
*M2/4
*k[b-e-]
*B-:
=1
{8b-
8b-
8a
8cc
=2
8b-
8g
8f
8r}
=3
{8dd
8dd
8cc
8dd
=4
8ee-
8dd
8cc
8r}
=5
{8b-
8b-
8a
8cc
=6
8b-
8g
8f
8r}
=7
{8dd
8dd
8cc
8dd
=8
8ee-
8dd
8cc}
{16f
16f
=9
16b-
16cc
16dd
16b-
16f
16a
16cc
16cc
=10
16b-
16cc
16dd
16b-
16f
16a
16cc}
{16cc
=11
8.ee-
16cc
8.dd
16b-
=12
16dd
16cc
16b-
16a
8b-
8r}
==
!!!AGN: Liebes - Lied, Abschieds - Lied
!!!ONB: ESAC (Essen Associative Code) Database: ZUCCAL
!!!AMT: simple duple
!!!AIN: vox
!!!EED: Helmut Schaffrath
!!!EEV: 1.0
*-
